X:1
T:No Other Story
T:No Other Story
T:Charles Hutchinson Gabriel
T:Ada Ruth Habershon, 1907
T:Public Domain Courtesy of the Cyber Hymnal™
T:Public Domain Courtesy of the Cyber Hymnal™
C:Charles Hutchinson Gabriel
Z:Public Domain
Z:Courtesy of the Cyber Hymnal™
%%score ( 1 2 ) 3
L:1/8
Q:1/4=110
M:6/8
K:Bb
V:1 treble 
V:2 treble 
V:3 bass 
V:1
 [DF] | [DF]2 [DF] [DF][B,D][DF] | [DB]2 [DB] [DB][DF][DB] | [Fd][Fc][FB] [GB]2 [EG] | %4
w: 1.~No|o- ther stor- y will|bear re- peat- ing As|of- ten as this is|
w: 2.~Pro-|claim with joy how the|cross of suff’- ring Will|ne- ver be borne a-|
w: 3.~Go|tell the stor- y in|far off count- ries, Let|ev- ’ry poor sin- ner|
w: 4.~The|whole sweet stor- y is|not yet fin- ished, The|se- quel is but be-|
w: 5.~Each|heart that o- pens to|hear the tid- ings, Re-|ceiv- ing the Sav- ior’s|
 [DF]3- [DF]2 [DF] | [EG]2 [GB] [GB][FA][EG] | [DF]2 [DB] [Fd][Fd][Fd] | %7
w: told; * God’s|glad good news of His|love to sin- ners Are|
w: gain. * That|on- ly glo- ry a-|waits the Sav- ior, That|
w: hear * How|Christ the Sav- ior has|died to win them, His|
w: gun; * When|all the ran- somed are|safe- ly ga- thered, E’en|
w: love, * Will|add a page to re-|demp- tion’s his- tory Re-|
 [Fc][FA]F ([FA][=EA])[CG] | [CF]3- [CF]2 ||"^Refrain" d>c[FB] [GB]>[FA][EG] | F3- [DF]3 | %11
w: tid- ings which never * grow|old. *|||
w: soon He will come * to|reign. *|||
w: love o- ver- comes * all|fear. *|Tell it a- gain and a-|gain, Tell|
w: then it will not * be|done. *|||
w: hearsed in the Home * a-|bove. *|||
 B>B[DB] [=EB]>[Ec][Ed] | c3- [Fc]2 [Fc] | [Fd]2 [Fd] [Fd][Fc][FB] | [Fe]2 [Fe] [Fe][Fd][Gc] | %15
w: ||||
w: ||||
w: * it a- gain and a-|gain, The Gos-|* pel stor- y, of|grace and glor- y, Bears|
w: ||||
w: ||||
 [Ff]<[Ff][GB] [Fd]>[Fd][Ec] | [DB]3- [DB]2 |] %17
w: ||
w: ||
w: tell- ing a- gain and a-|gain. *|
w: ||
w: ||
V:2
 x | x6 | x6 | x6 | x6 | x6 | x6 | x2 F x3 | x5 || F2 x4 | D>DD x3 | D2 x4 | F>FF x3 | x6 | x6 | %15
 x6 | x5 |] %17
V:3
 [B,,B,] | [B,,B,]2 [B,,B,] [B,,B,][B,,F,][B,,B,] | [B,,F,]2 [B,,F,] [B,,F,][B,,B,][B,,B,] | %3
 [B,,B,][C,A,][D,B,] [E,E]2 [E,B,] | [B,,B,]3- [B,,B,]2 [B,,B,] | %5
 [E,B,]2 [E,B,] [E,B,][E,B,][E,B,] | [B,,B,]2 [B,,F,] [B,,B,][B,,B,][B,,B,] | %7
 [C,A,][C,C][C,A,] [C,C][C,C][C,B,] | [F,A,]3- [F,A,]2 || [B,,B,]>[C,A,][D,B,] [E,E]>[E,E][E,B,] | %10
 ([B,,B,]>[B,,B,][B,,B,] [B,,B,]3) | [G,B,]2 [G,B,] [C,B,]>[C,B,][C,B,] | %12
 ([F,A,]>[F,A,][F,A,] [F,A,]2) [F,A,] | [B,,B,]2 [B,,B,] [B,,B,][C,A,][D,B,] | %14
 [C,A,]2 [C,A,] [C,A,][D,B,][E,B,] | [D,B,]<[D,B,][E,B,] [F,B,]>[F,B,][F,A,] | %16
 [B,,B,]3- [B,,B,]2 |] %17

